src/16/actions/dialog-rows-and-columns.svg

<svg xmlns="http://www.w3.org/2000/svg" width="16" height="16" viewBox="0 0 16 16">
 <defs>
  <style id="current-color-scheme" type="text/css">
   .ColorScheme-Text { color:#565656; } .ColorScheme-Highlight { color:#5294e2; }
  </style>
 </defs>
 <path style="fill:currentColor" class="ColorScheme-Text" d="m1 1v5h7v-5h-7zm8 0v7h6v-7h-6zm-8 8v6h7v-6h-7zm8 0v4h6v-4h-6z"/>
</svg>

<svg xmlns="http://www.w3.org/2000/svg" width="16" height="16"><defs><style id="current-color-scheme" type="text/css"></style></defs><path d="M1 1v5h7V1H1zm8 0v7h6V1H9zM1 9v6h7V9H1zm8 0v4h6V9H9z" fill="currentColor" color="#565656"/></svg>
